!!!SOCIAL_FUNCTION:	love songs
!!!PDT:	1913
!!!OTL: No_107_You_Desire_Vainly.krn
!!!REG: Great_Lakes
!!!LANG: Non-Tone
!!!LING_GROUP: Algonquin
**kern
*staff1
*clefF4
*k[b-e-a-d-g-c-]
*M2/4
8e-\L
8e-\J
=1
[12f\L
12f\]
12g-\J
[12f\L
12f\]
12g-\J
=2
[2e-\
=3
4e-\]
8d-\L
8B-\J
=4
8e-\L
8d-\J
4B-\
=5
[2A-\
=6
2A-\_
=7
4A-\]
8e-\L
8B-\J
=8
4e-\
4e-\
=9||
*M3/4
2B-\
8B-\L
8A-\J
=10||
*M2/4
8B-\L
8A-\J
4G-\
=11
[2E-\
=12
2E-\]
=13
4E-\
4B-\
=14||
*M3/4
2.A-\
=15||
*M2/4
4e-\
4B-\
=16
2A-\
=17||
*M3/4
8A-\L
8G-\J
8A-\L
8G-\J
(8G-\L
8E-\J)
=18||
*M2/4
[2E-\
=19
4E-\]
4r
==
*-
